public/landing/warning.svg

<?xml version="1.0" encoding="UTF-8" standalone="no"?><!DOCTYPE svg PUBLIC "-//W3C//DTD SVG 1.1//EN" "http://www.w3.org/Graphics/SVG/1.1/DTD/svg11.dtd"><svg width="100%" height="100%" viewBox="0 0 225 184" version="1.1" xmlns="http://www.w3.org/2000/svg" xmlns:xlink="http://www.w3.org/1999/xlink" xml:space="preserve" xmlns:serif="http://www.serif.com/" style="fill-rule:evenodd;clip-rule:evenodd;stroke-linecap:round;stroke-linejoin:round;stroke-miterlimit:5;"><g transform="matrix(1,0,0,1,-0.12542,-20.9355)"><g transform="matrix(0.1,0,0,-0.1,2.84217e-14,230.808)"><g transform="matrix(10,0,0,-10,7.10543e-13,2150.67)"><g transform="matrix(1.54372,0,0,1.23498,-12.8606,27.4983)"><path d="M81.207,-11.319L148.609,123.485L13.804,123.485L81.207,-11.319Z" style="fill:rgb(250,208,33);"/><path d="M85.779,-14.892C84.794,-16.862 83.066,-18.06 81.207,-18.06C79.347,-18.06 77.619,-16.862 76.634,-14.892L9.232,119.913C8.193,121.991 8.138,124.61 9.088,126.753C10.038,128.896 11.844,130.225 13.804,130.225L148.609,130.225C150.569,130.225 152.375,128.896 153.325,126.753C154.275,124.61 154.22,121.991 153.182,119.913L85.779,-14.892ZM81.207,-11.319L148.609,123.485L13.804,123.485L81.207,-11.319Z" style="fill:rgb(250,208,33);"/></g><g transform="matrix(1.41957,0,0,1.13566,-2.77841,35.2703)"><path d="M81.207,-11.319L148.609,123.485L13.804,123.485L81.207,-11.319Z" style="fill:none;stroke:rgb(6,5,0);stroke-width:5.95px;"/></g></g></g><g transform="matrix(0.1,0,0,-0.1,2.84217e-14,230.808)"><g transform="matrix(1,0,0,1,0,-165.797)"><g transform="matrix(1,0,0,1,49.864,235)"><path d="M1330,1040C1319,1019 1286,1013 1275,1030C1272,1036 1260,1040 1249,1040C1235,1040 1230,1033 1230,1010C1230,987 1225,979 1206,974C1192,971 1176,971 1170,975C1155,984 1145,951 1157,931C1171,909 1162,890 1134,880C1105,869 1103,844 1129,835C1154,827 1160,800 1142,778C1122,754 1133,732 1167,728C1190,726 1196,719 1198,695C1202,657 1216,642 1232,658C1252,678 1280,672 1292,645C1305,615 1336,612 1345,640C1352,663 1382,666 1400,646C1416,626 1440,637 1440,665C1440,694 1463,713 1488,706C1512,698 1532,720 1520,740C1503,767 1509,789 1535,796C1565,804 1569,836 1540,845C1518,852 1513,889 1531,907C1548,924 1535,949 1512,944C1489,937 1466,964 1473,990C1480,1018 1458,1033 1435,1016C1410,998 1383,1007 1376,1036C1368,1065 1345,1067 1330,1040ZM1398,960C1503,912 1500,758 1394,714C1350,696 1316,696 1273,717C1227,738 1200,784 1200,838C1200,895 1225,935 1275,960C1325,985 1344,985 1398,960Z" style="fill-rule:nonzero;"/></g><g transform="matrix(1,0,0,1,49.864,235)"><path d="M1097,1176C1098,1129 1101,1081 1105,1070C1109,1058 1107,1043 1101,1037C1087,1023 1086,970 1100,970C1115,970 1112,934 1097,921C1089,915 1080,913 1077,917C1067,927 1030,889 1030,869C1030,843 996,826 980,845C964,864 926,864 910,846C902,835 892,834 874,841C831,857 792,851 716,820L642,789L620,682C608,623 596,564 593,551C586,523 584,523 728,608L821,663L938,651C1066,637 1063,638 1168,568C1209,542 1243,520 1245,520C1252,520 1258,562 1253,580C1250,590 1215,627 1174,660C1096,725 1089,740 1111,797C1118,816 1118,826 1111,828C1105,830 1100,843 1100,856C1100,873 1108,883 1125,890C1151,900 1157,919 1139,937C1131,945 1132,954 1141,971C1148,985 1154,1040 1156,1105C1158,1221 1147,1260 1112,1260C1097,1260 1095,1250 1097,1176Z" style="fill-rule:nonzero;"/></g><g transform="matrix(1,0,0,1,49.864,235)"><path d="M1196,1228C1192,1210 1190,1184 1190,1171C1190,1158 1183,1142 1175,1136C1164,1127 1162,1111 1168,1055C1174,994 1178,985 1195,985C1213,985 1215,991 1212,1038C1209,1081 1212,1094 1226,1105C1237,1112 1246,1133 1247,1152C1248,1170 1251,1201 1252,1220C1255,1251 1252,1255 1229,1258C1206,1261 1202,1257 1196,1228Z" style="fill-rule:nonzero;"/></g><g transform="matrix(1,0,0,1,49.864,235)"><path d="M1305,1158C1283,1147 1263,1133 1262,1128C1260,1124 1251,1112 1242,1103C1224,1086 1217,1050 1231,1050C1244,1050 1294,1071 1300,1078C1303,1082 1317,1093 1333,1103C1352,1116 1360,1129 1360,1150C1360,1185 1357,1186 1305,1158Z" style="fill-rule:nonzero;"/></g><g transform="matrix(1,0,0,1,49.864,235)"><path d="M883,1153C876,1150 870,1140 870,1131C870,1109 839,1080 816,1080C795,1080 784,1052 799,1037C813,1023 814,973 800,965C783,955 789,930 808,930C831,930 870,890 870,867C870,849 895,844 905,860C908,866 927,870 946,870C965,870 980,866 980,860C980,855 989,850 1000,850C1014,850 1020,857 1020,873C1020,902 1049,930 1078,930C1100,930 1108,954 1090,965C1076,973 1077,1023 1091,1037C1107,1053 1095,1080 1072,1080C1050,1080 1020,1110 1020,1132C1020,1154 994,1162 980,1144C964,1126 921,1126 906,1144C900,1151 889,1156 883,1153ZM983,1078C1031,1053 1045,996 1014,952C977,899 894,904 864,962C825,1037 908,1118 983,1078Z" style="fill-rule:nonzero;"/></g></g></g></g></svg>

<svg xmlns="http://www.w3.org/2000/svg" xml:space="preserve" style="fill-rule:evenodd;clip-rule:evenodd;stroke-linecap:round;stroke-linejoin:round;stroke-miterlimit:5" viewBox="0 0 225 184"><path d="m81.207-11.319 67.402 134.804H13.804z" style="fill:#fad021" transform="matrix(1.54372 0 0 1.23498 -12.986 22.304)"/><path d="M85.779-14.892c-.985-1.97-2.713-3.168-4.572-3.168-1.86 0-3.588 1.198-4.573 3.168L9.232 119.913c-1.039 2.078-1.094 4.697-.144 6.84s2.756 3.472 4.716 3.472h134.805c1.96 0 3.766-1.329 4.716-3.472s.895-4.762-.143-6.84zm-4.572 3.573 67.402 134.804H13.804z" style="fill:#fad021" transform="matrix(1.54372 0 0 1.23498 -12.986 22.304)"/><path d="m81.207-11.319 67.402 134.804H13.804z" style="fill:none;stroke:#060500;stroke-width:5.95px" transform="matrix(1.41957 0 0 1.13566 -2.904 30.076)"/><path d="M1330 1040c-11-21-44-27-55-10-3 6-15 10-26 10-14 0-19-7-19-30s-5-31-24-36c-14-3-30-3-36 1-15 9-25-24-13-44 14-22 5-41-23-51-29-11-31-36-5-45 25-8 31-35 13-57-20-24-9-46 25-50 23-2 29-9 31-33 4-38 18-53 34-37 20 20 48 14 60-13 13-30 44-33 53-5 7 23 37 26 55 6 16-20 40-9 40 19 0 29 23 48 48 41 24-8 44 14 32 34-17 27-11 49 15 56 30 8 34 40 5 49-22 7-27 44-9 62 17 17 4 42-19 37-23-7-46 20-39 46 7 28-15 43-38 26-25-18-52-9-59 20-8 29-31 31-46 4m68-80c105-48 102-202-4-246-44-18-78-18-121 3-46 21-73 67-73 121 0 57 25 97 75 122s69 25 123 0" style="fill-rule:nonzero" transform="matrix(.1 0 0 -.1 4.861 202.952)"/><path d="M1097 1176c1-47 4-95 8-106 4-12 2-27-4-33-14-14-15-67-1-67 15 0 12-36-3-49-8-6-17-8-20-4-10 10-47-28-47-48 0-26-34-43-50-24s-54 19-70 1c-8-11-18-12-36-5-43 16-82 10-158-21l-74-31-22-107c-12-59-24-118-27-131-7-28-9-28 135 57l93 55 117-12c128-14 125-13 230-83 41-26 75-48 77-48 7 0 13 42 8 60-3 10-38 47-79 80-78 65-85 80-63 137 7 19 7 29 0 31-6 2-11 15-11 28 0 17 8 27 25 34 26 10 32 29 14 47-8 8-7 17 2 34 7 14 13 69 15 134 2 116-9 155-44 155-15 0-17-10-15-84" style="fill-rule:nonzero" transform="matrix(.1 0 0 -.1 4.861 202.952)"/><path d="M1196 1228c-4-18-6-44-6-57s-7-29-15-35c-11-9-13-25-7-81 6-61 10-70 27-70 18 0 20 6 17 53-3 43 0 56 14 67 11 7 20 28 21 47 1 18 4 49 5 68 3 31 0 35-23 38s-27-1-33-30" style="fill-rule:nonzero" transform="matrix(.1 0 0 -.1 4.861 202.952)"/><path d="M1305 1158c-22-11-42-25-43-30-2-4-11-16-20-25-18-17-25-53-11-53 13 0 63 21 69 28 3 4 17 15 33 25 19 13 27 26 27 47 0 35-3 36-55 8m-422-5c-7-3-13-13-13-22 0-22-31-51-54-51-21 0-32-28-17-43 14-14 15-64 1-72-17-10-11-35 8-35 23 0 62-40 62-63 0-18 25-23 35-7 3 6 22 10 41 10s34-4 34-10c0-5 9-10 20-10 14 0 20 7 20 23 0 29 29 57 58 57 22 0 30 24 12 35-14 8-13 58 1 72 16 16 4 43-19 43-22 0-52 30-52 52s-26 30-40 12c-16-18-59-18-74 0-6 7-17 12-23 9m100-75c48-25 62-82 31-126-37-53-120-48-150 10-39 75 44 156 119 116" style="fill-rule:nonzero" transform="matrix(.1 0 0 -.1 4.861 202.952)"/></svg>
